X: 6991
T: Chicken
R: reel
M: 4/4
K: Dmajor
e2|:fdAF DFAF|AFBF A2 e2|fdAF DFAF|Addc d2 e2|
fdAF DFAF|AFBF A2 e2|fdAF DFAF|Addc d2 e2:|
f a2 f d2 fd|Adfd Adfd|f a2 f d2 fd|Addc d2 e2|
f a2 f d2 fd|Adfd Adfd|f a2 f d2 fd|Addc d2 e2:|

